**kern	**kern	**kern	**kern	**harm
*staff4	*staff3	*staff2	*staff1	*staff1
=1-	=1-	=1-	=1-	=1-
*clefF4	*clefG2	*clefG2	*clefG2	*
*k[b-e-]	*k[b-e-]	*k[b-e-]	*k[b-e-]	*
*M2/4	*M2/4	*M2/4	*M2/4	*
*	*	*	*MM120	*
*B-:	*B-:	*B-:	*B-:	*B-:
4r	4r	4r	4r	.
8r	8r	8r	8r	.
8BB-/	8c/	8e-/	16ee-\LL	viio
.	.	.	16a\JJ	.
=2	=2	=2	=2	=2
8BB-/L	8d/L	8f/L	8b-\L	I
8BB-/J	8c/J	8e-/J	16ff\L	viio
.	.	.	16a\JJ	.
8BB-/L	8d/L	8f/L	8b-\L	I
8BB-/J	8c/J	8e-/J	16gg\L	viio7
.	.	.	16a\JJ	.
=3	=3	=3	=3	=3
4BB-'/	4d'/	4f'/	8b-\L	I
.	.	.	16aa\L	.
.	.	.	16ff\JJ	.
4r	4r	8r	8bb-\L	.
.	.	[8dd\	[8ff\J	I6
=4	=4	=4	=4	=4
4.AA/	4.A/	8dd\L]	8ff\L]	viio
.	.	8cc#\J	8een\J	.
.	.	8ccn\L	8ee-\L	.
8BB-/	8B-/	8b-\J	8dd\J	I
=5	=5	=5	=5	=5
!!linebreak:original
4F\	4f/	4a'/	16cc\LL	V
.	.	.	16b-\	.
.	.	.	16cc\	.
.	.	.	16dd\JJ	.
8r	8r	8r	8cc\L	.
8BB-/	8c/	8e-/	16ee-\L	viio
.	.	.	16a\JJ	.
=6	=6	=6	=6	=6
8BB-/L	8d/L	8f/L	8b-\L	I
8BB-/J	8c/J	8e-/J	16ff\L	viio
.	.	.	16a\JJ	.
8BB-/L	8d/L	8f/L	8b-\L	I
8BB-/J	8c/J	8e-/J	16gg\L	viio7
.	.	.	16a\JJ	.
=7	=7	=7	=7	=7
4BB-'/	4d'/	4f'/	8b-\L	I
.	.	.	16aa\L	.
.	.	.	16ff\JJ	.
4r	4r	8r	8bb-\L	.
.	.	[8dd\	[8ddd\J	I6
=8	=8	=8	=8	=8
*	*clefF4	*	*	*
4DD/	[2B-\	8dd\]	8ddd\]	.
.	.	4b-\	4bb-\	.
4D\	.	.	.	.
.	.	[8f#/	[8ff#\	I+
=9	=9	=9	=9	=9
4E-\	4.B-\]	8f#/]	8ff#\]	IV
.	.	4g/	4gg\	.
4E-\	.	.	.	.
.	8G\	16e-/LL	16ee-\LL	ii6
.	.	16c/JJ	16cc\JJ	.
=10	=10	=10	=10	=10
!!linebreak:original
4F\	4F\	8d/L	8b-\L	C64
.	.	8d/J	8b-\J	.
4FF/	4A\	16e-/LL	16cc\LL	V7
.	.	16d/	16b-\	.
.	.	16e-/	16cc\	.
.	.	16f/JJ	16dd\JJ	.
=11	=11	=11	=11	=11
[2BB-/	4B-\	4d'/	4b-\	I
.	4E-\	4r	8r	V7
.	.	.	16c/LL	.
.	.	.	16A/JJ	.
=12	=12	=12	=12	=12
2BB-/_	4D\	4r	8B-/L	I
.	.	.	8d/J	.
.	4A-\	[4d/	8f/L	V7/IV
.	.	.	8f/J	.
=13	=13	=13	=13	=13
2BB-/_	2G\	8d/L]	8.f/L	IV64
.	.	8e-/J	.	.
.	.	.	16g/Jk	.
.	.	8e-/L	8e-/L	.
.	.	8e-/J	16ee-/L	.
.	.	.	16cc/JJ	.
=14	=14	=14	=14	=14
2BB-/_	2A\	2e-/	16b-\LL	V7
.	.	.	16a\	.
.	.	.	16cc\	.
.	.	.	16a\JJ	.
.	.	.	16g/LL	.
.	.	.	16f/	.
.	.	.	16cc/	.
.	.	.	16e-/JJ	.
=15	=15	=15	=15	=15
!!pagebreak:original
2BB-/_	4B-\	4d/	16d/LL	I
.	.	.	16f/	.
.	.	.	16b-/	.
.	.	.	16dd/JJ	.
.	8D\L	4r	8ff/L	.
.	8E-\J	.	16c/L	V7
.	.	.	16A/JJ	.
=16	=16	=16	=16	=16
2BB-/_	4D\	4r	8B-/L	I
.	.	.	8d/J	.
.	4A-\ [4d\	4Bn/	8f/L	viio7/ii
.	.	.	8f/J	.
=17	=17	=17	=17	=17
*	*^	*	*	*
2BB-/_	8d/L]	4G\	4B-/	8.f/L	IV64
.	8e-/J	.	.	.	.
.	.	.	.	16g/Jk	.
.	8G/L 8e-/	4r	4r	8e-\L	.
.	8G/J 8e-/	.	.	16gg\L	.
.	.	.	.	16ff\JJ	.
*	*v	*v	*	*	*
=18	=18	=18	=18	=18
2BB-/_	2c\ 2e-\	2a/	16ee-\LL	V7
.	.	.	16dd\	.
.	.	.	16cc\	.
.	.	.	16b-\JJ	.
.	.	.	16a/LL	.
.	.	.	16g/	.
.	.	.	16f/	.
.	.	.	16e-/JJ	.
=19	=19	=19	=19	=19
4BB-/]	4B-\ 4d\	4b-\	16d/LL	I
.	.	.	16f/	.
.	.	.	16b-/	.
.	.	.	16dd/JJ	.
8r	8r	8r	8ff\L	.
8F\	16A\LL	16c/LL	16ee-\L	V7
.	16c\JJ	16e-/JJ	16a\JJ	.
=20	=20	=20	=20	=20
!!linebreak:original
4B-\	4B-\	4d/	8b-\L	I
.	.	.	8dd\J	.
8r	8r	8r	8ff\L	.
8F\	16A/LL	16c/LL	16ee-\L	V7
*	*clefG2	*	*	*
.	16c/JJ	16e-/JJ	16a\JJ	.
=21	=21	=21	=21	=21
4BB-/	4B-/	4d/	8b-\L	I
.	.	.	8dd\J	.
*F:	*F:	*F:	*F:	*F;
8r	8r	8r	8gg\L	ii
8B-\	16c/LL	16g/LL	16een\L	V42
.	16g/JJ	16en/JJ	16cc\JJ	.
=22	=22	=22	=22	=22
4A\	4f/	4f/	8ff\L	I6
.	.	.	8aa\J	.
8r	8r	8r	8ccc\L	.
8B-\	16en/LL	16g/LL	16gg\L	V42
.	16g/JJ	16b-/JJ	16een\JJ	.
=23	=23	=23	=23	=23
4A\	4f/	4cc\	8ff\L	I6
.	.	.	8aa\J	.
8r	4r	4r	8ccc\L	.
8F\	.	.	16ccc\L	I
.	.	.	16aa\JJ	.
=24	=24	=24	=24	=24
8En\L	[2c/	2g/	8bb-\L	V65
8E\J	.	.	8bb-\J	.
8E\L	.	.	8gg\L	.
8E\J	.	.	8gg\J	.
=25	=25	=25	=25	=25
!!linebreak:original
8En\L	2c/_	2g/	8een\L	.
8E\J	.	.	8ee\J	.
8E\L	.	.	8b-\L	.
8E\J	.	.	8b-\J	.
=26	=26	=26	=26	=26
8F\L	2c/_	2f/	8a/L	I
8F\J	.	.	8a/J	.
8F\L	.	.	8cc\L	.
8F\J	.	.	8cc\J	.
=27	=27	=27	=27	=27
8F\L	2c/]	2a/	16ff\LL	.
.	.	.	16een\	.
8F\J	.	.	16aa\	.
.	.	.	16gg\JJ	.
8F\L	.	.	16ff\LL	.
.	.	.	16ee\	.
8F\J	.	.	16dd\	.
.	.	.	16cc\JJ	.
=28	=28	=28	=28	=28
4En'\	4c'/	4b-'\	16cc/LL	V65
.	.	.	16b-/	.
.	.	.	16a/	.
.	.	.	16g/JJ	.
4E'\	4c'/	4b-'\	16f/LL	.
.	.	.	16en/	.
.	.	.	16b-/	.
.	.	.	16g/JJ	.
=29	=29	=29	=29	=29
4En'\	4c'/	4g'/	16f/LL	.
.	.	.	16en/	.
.	.	.	16g/	.
.	.	.	16e/JJ	.
4E'\	4c'/	4g'/	16c/LL	.
.	.	.	16B-/	.
.	.	.	16g/	.
.	.	.	16B-/JJ	.
=30	=30	=30	=30	=30
!!pagebreak:original
4F\	4c/	4a/	16A/LL	I
.	.	.	16cc/	.
.	.	.	16cc/	.
.	.	.	16cc/JJ	.
8r	8r	8r	16bn/LL	.
.	.	.	16cc/	.
*g:	*g:	*g:	*g:	*g:
8G\	8B-/	8e-/	16e-/	iv43
.	.	.	16cc/JJ	.
=31	=31	=31	=31	=31
4F#\	4A/	4d/	16d/LL	V6
.	.	.	16dd/	.
.	.	.	16dd/	.
.	.	.	16dd/JJ	.
8r	8r	8r	16cc#/LL	.
.	.	.	16dd/	.
8F#\	8d/	8cc\	16d/	V65
.	.	.	16ccn/JJ	.
=32	=32	=32	=32	=32
4G\	4d/	4b-\	16d/LL	i
.	.	.	16b-/	.
.	.	.	16b-/	.
.	.	.	16b-/JJ	.
8r	8r	8r	16cc\LL	.
.	.	.	16b-\	.
*F:	*F:	*F:	*F:	*F:
8F\	8g/	8g/	16dd\	ii42
.	.	.	16b-\JJ	.
=33	=33	=33	=33	=33
!!linebreak:original
2En\	4.g/	4.b-\	16dd\LL	V65
.	.	.	16cc\	.
.	.	.	16bb-\	.
.	.	.	16gg\JJ	.
.	.	.	16bb-\LL	.
.	.	.	16gg\	.
.	8cc\	8g/	16een\	.
.	.	.	16b-\JJ	.
=34	=34	=34	=34	=34
8F\L	2cc\	2a/	16a\LL	I
.	.	.	16ff\	.
8F\J	.	.	16een\	.
.	.	.	16ff\JJ	.
8F\L	.	.	16gg\LL	.
.	.	.	16ff\	.
8F\J	.	.	16aa\	.
.	.	.	16gg\JJ	.
=35	=35	=35	=35	=35
8D\L	4.f/	2bn\	16ff\LL	viio6/V
.	.	.	16een\	.
8D\J	.	.	16dd\	.
.	.	.	16cc\JJ	.
8D\L	.	.	16bn/LL	.
.	.	.	16a/	.
8D\J	8g/	.	16g/	.
.	.	.	16f/JJ	.
=36	=36	=36	=36	=36
4C/	4g/	8cc\L	8en\L	V7
.	.	8een\J	8gg\J	.
4r	4r	8ee\L	8gg\L	.
.	.	8ff\J	8aa\J	.
=37	=37	=37	=37	=37
!!linebreak:original
8r	8r	4gg'\	4bb-'\	.
*clefG2	*	*	*	*
8en/	8g/	.	.	.
8e/L	8g/L	4r	4r	.
8f/J	8a/J	.	.	.
=38	=38	=38	=38	=38
4g'/	4b-'\	8r	8r	.
.	.	8cc\	8een\	.
4r	4r	8cc\L	8ee\L	.
.	.	8dd\J	8ff\J	.
=39	=39	=39	=39	=39
8r	8r	8een\L	8gg\L	.
*clefF4	*	*	*	*
8B-\	8en/	8cc\J	8gg\J	.
8B-\L	8e/L	8cc\L	8gg\L	.
8A\J	8f/J	8cc\J	8aa\J	.
=40	=40	=40	=40	=40
4G\	4en/	4cc\	4bb-\	V43
8r	8r	8r	8r	.
8G\	8f/	8dd-\	8bb-\	.
=41	=41	=41	=41	=41
8G\L	8en/L	8cc\L	8bb-\L	.
8G\J	8f/J	8dd-\J	8bb-\J	.
8G\L	8e/L	8cc\L	8bb-\L	.
8G\J	8f/J	8dd-\J	8bb-\J	.
=42	=42	=42	=42	=42
4G\	4en/	4cc\	4bb-\	.
8r	8r	8r	8r	.
8G\	8f/	8dd-\	8bb-\	.
=43	=43	=43	=43	=43
!!pagebreak:original
8G\L	8en/L	8cc\L	8bb-\L	.
8G\J	8f/J	8dd-\J	8bb-\J	.
8G\L	8e/L	8cc\L	8bb-\L	.
8G\J	8f/J	8dd-\J	8bb-\J	.
=44	=44	=44	=44	=44
4G\	4en/	4cc\	4bb-\	.
8r	8r	8r	8r	.
8G\	8f/	8dd-\	8bb-\	.
=45	=45	=45	=45	=45
4G\	4en/	4cc\	4bb-\	.
8r	8r	8r	8r	.
8G\	8f/	8dd-\	8bb-\	.
=46	=46	=46	=46	=46
4G'\	4en'/	4cc'\	4bb-'\	.
4G'\	4e'/	4cc'\	4bb-'\	.
=47	=47	=47	=47	=47
4G'\	4en'/	4cc'\	4bb-'\	.
4G'\	4e'/	4cc'\	4bb-'\	.
=48	=48	=48	=48	=48
*E-:	*E-:	*E-:	*E-:	*E-:
[2A-\	2e-/	[2cc\	2bb-\	IV
=49	=49	=49	=49	=49
2A-\]	[2f/	2cc\]	[2aa-\	ii
=50	=50	=50	=50	=50
[2B-\	2f/]	2dd\	2aa-\]	V7
=51	=51	=51	=51	=51
2B-\_	4e-/	[2ee-\	2gg\	I64
.	4g/	.	.	.
=52	=52	=52	=52	=52
2B-\]	2b-\	2ee-\]	2ff\	V
=53	=53	=53	=53	=53
!!linebreak:original
*F:	*F:	*F:	*F:	*F:
2Bn\	2g/	2dd\	2ff\	V65/V
=54	=54	=54	=54	=54
*clefG2	*	*	*	*
8c/L	8g/L	8een\L	8een\L	V7
8c/J	8en/J	8g\J	16bb-\L	.
.	.	.	16gg\JJ	.
8c/L	16e/LL	16g/LL	16bb-\LL	.
.	16g/	16b-/	16gg\	.
8c/J	16f/	16a/	16aa\	.
.	16a/JJ	16cc/JJ	16ff\JJ	.
=55	=55	=55	=55	=55
4c/	4g/	4b-\	16gg\LL	.
.	.	.	16een\	.
.	.	.	16ff\	.
.	.	.	16dd\JJ	.
4r	4r	4r	16ee\LL	.
.	.	.	16cc\	.
.	.	.	16dd\	.
.	.	.	16bn\JJ	.
=56	=56	=56	=56	=56
8c/L	8en/L	8g/L	8cc\L	.
8c/J	8e/J	8g/J	16bb-\L	.
.	.	.	16gg\JJ	.
8c/L	16e/LL	16g/LL	16bb-\LL	.
.	16g/	16b-/	16gg\	.
8c/J	16f/	16a/	16aa\	.
.	16a/JJ	16cc/JJ	16ff\JJ	.
=57	=57	=57	=57	=57
4c/	4g/	4b-\	16gg\LL	.
.	.	.	16een\	.
.	.	.	16ff\	.
.	.	.	16dd\JJ	.
4r	4r	4r	16ee\LL	.
.	.	.	16cc\	.
.	.	.	16dd\	.
.	.	.	16bn\JJ	.
=58	=58	=58	=58	=58
!!linebreak:original
8c/L	8en/L	8g/L	8cc\L	.
8c/J	8e/J	8g/J	16bb-\L	.
.	.	.	16gg\JJ	.
8c/L	16e/LL	16g/LL	16bb-\LL	.
.	16g/	16b-/	16gg\	.
8c/J	16f/	16a/	16aa\	.
.	16a/JJ	16cc/JJ	16ff\JJ	.
=59	=59	=59	=59	=59
4c/	4g/	4b-\	16gg\LL	.
.	.	.	16een\	.
.	.	.	16ff\	.
.	.	.	16dd\JJ	.
4r	4r	4r	16ee\LL	.
.	.	.	16cc\	.
.	.	.	16dd\	.
.	.	.	16b-\JJ	.
=60	=60	=60	=60	=60
*clefF4	*	*	*	*
4.F\	[2c/	4.f/	4.a/	I
8En\	.	8g/	8b-\	V65
=61	=61	=61	=61	=61
4.B-\	4c/]	4.en/	8g\L	V2
.	.	.	16dd\L	.
.	.	.	16cc\JJ	.
.	8r	.	8cc\L	.
8B-\	8g/	8e/	8cc\J	.
=62	=62	=62	=62	=62
4A\	4a/	4f/	8.cc\L	I6
.	.	.	16ff\Jk	.
8r	8r	8r	8cc\L	.
16En\LL	8c/	16g/LL	16b-\L	.
16F\JJ	.	16f/JJ	16a\JJ	.
=63	=63	=63	=63	=63
!!pagebreak:original
4.B-\	4c/	4.en/	8g\L	V42
.	.	.	16dd\L	.
.	.	.	16cc\JJ	.
.	8r	.	8cc\L	.
8B-\	8g/	8e/	8cc\J	.
=64	=64	=64	=64	=64
4A\	4a/	4f/	8.cc\L	I6
.	.	.	16ff\Jk	.
8r	8r	8r	8cc\L	.
8G#\	8f/	8f/	8bn\J	.
=65	=65	=65	=65	=65
4A\	4f/	4f/	16cc\LL	.
.	.	.	16dd\	.
.	.	.	16een\	.
.	.	.	16ff\JJ	.
8r	8r	8r	8cc\L	.
8F#\	8c/	8d/	8a\J	V65/ii
=66	=66	=66	=66	=66
*	*clefF4	*	*	*
8G\L	8B-\L	8d/L	8b-/L	ii
8En\J	8c\J	8g/J	8g/J	V6
8F\L	8F\L	8c/L	8a/L	I
8BB-\J	8B-\J	8d/J	8g/J	ii6
=67	=67	=67	=67	=67
*	*	*clefF4	*	*
8C/L	8c\L	8A\L	8f/L	C64
8C/J	8c\J	8A\J	8f/J	.
8C/L	8G\L	8B-\L	8en/L	V7
8C/J	8G\J	8B-\J	8e/J	.
=68	=68	=68	=68	=68
!!linebreak:original
4FF/	4A\	4A'\	16f/LL	I
.	.	.	16c/	.
.	.	.	16A/	.
.	.	.	16c/JJ	.
4r	8r	8r	16f/LL	.
.	.	.	16a/	.
*	*	*clefG2	*	*
.	8B-\	16c/LL	16g/	V42
.	.	16en/JJ	16en/JJ	.
=69	=69	=69	=69	=69
2r	4A\	8f/L	16a/LL	I6
.	.	.	16f/	.
.	.	8g/J	16b-/	.
.	.	.	16g/JJ	.
.	4r	8a/L	8cc\L	.
.	.	8a/J	[8aa\J	.
=70	=70	=70	=70	=70
4FF/	4F\	8a/	8aa\]	I
.	.	4f/	4ff\	.
4AA/	4A\	.	.	.
.	.	[8c#/	[8cc#\	I+
=71	=71	=71	=71	=71
4BB-/	4B-\	8c#/]	8cc#\]	IV
.	.	4d/	4dd\	.
*	*clefG2	*	*	*
4B-\	4b-\	.	.	.
.	.	16d\LL	16b-/LL	.
*	*	*clefF4	*	*
.	.	16B-\JJ	16g/JJ	.
=72	=72	=72	=72	=72
4c\	8r	4.A\	4.f/	C64
.	8c/	.	.	.
*	*clefF4	*	*	*
4C/	8A\L	.	.	.
.	8En\J	16c\LL	16a/LL	V7
.	.	16B-\JJ	16g/JJ	.
=73	=73	=73	=73	=73
!!linebreak:original
4F\	4F\	4A\	16f/LL	I
.	.	.	16c/	.
.	.	.	16A/	.
.	.	.	16c/JJ	.
4r	8r	8r	16f/LL	.
.	.	.	16a/	.
*	*	*clefG2	*	*
.	8B-\	16c/LL	16g/	V42
.	.	16en/JJ	16en/JJ	.
=74	=74	=74	=74	=74
2r	4A\	8f/L	16a/LL	I6
.	.	.	16f/	.
.	.	8g/J	16b-/	.
.	.	.	16g/JJ	.
.	4r	8a/L	8cc\L	.
.	.	[8a/J	[8aa\J	.
=75	=75	=75	=75	=75
4FF/	4F\	8a/]	8aa\]	I
.	.	4bn\	4bbn\	.
4AA/	4A\	.	.	.
.	.	[8cc\	[8ccc\	.
=76	=76	=76	=76	=76
4BB-/	4B-\	8cc\L]	8ccc\L]	IV
.	.	8cc#\J	8ccc#\J	.
*	*clefG2	*	*	*
4B-\	4b-\	8dd\L	8ddd\L	ii6
.	.	16dd\L	16bb-\L	.
.	.	16b-\JJ	16gg\JJ	.
=77	=77	=77	=77	=77
4c\	8cc\L	4.a/	4.ff\	C64
.	8a\J	.	.	.
4C/	8f/L	.	.	.
.	16en/L	16b-/LL	16gg\LL	V7
.	16g/JJ	16g/JJ	16een\JJ	.
=78	=78	=78	=78	=78
!!pagebreak:original
4F\	4f/	4a/	8ff\L	I
.	.	.	16aa\L	.
.	.	.	16een\JJ	.
8r	8r	8r	16ff\LL	.
.	.	.	16cc#\	.
16d\LL	16dd\LL	16dd\LL	16dd\	vi
16A\JJ	16a\JJ	16a\JJ	16a\JJ	.
=79	=79	=79	=79	=79
8B-\L	8b-/L	8b-/L	8b-/L	ii
8G\J	8g/J	8g/J	8g/J	.
8c\L	8cc/L	8cc/L	8cc/L	V
8C\J	8c/J	8c/J	8c/J	.
=80	=80	=80	=80	=80
8F/L	8f/L	8f\L	8f\L	I
*	*clefF4	*	*	*
8FF/J	8F/J	8ff\J	8ff\J	.
4r	4r	4r	4r	.
*-	*-	*-	*-	*-
